X:1
T:Hymn Melodies
T:Hymn Melodies
T:Oliver Holden
C:Oliver Holden
L:1/8
M:4/4
K:G
V:1 alto nm="Viola" snm="Vla."
V:1
 z2 |!mp! (B,4 D4) | ^C8 | ((C4 F4)) | (C2 B,A, B,2) z2 |!mf! ^D4 (B,2 G,2) | !courtesy!=D4 D2 z2 | %7
!ff! A,4 B,4 | G4 G4 | (G4 F2) z2 |!f! (B,4 G,4) | C4 C2 z2 | [EB]4 C4 | D3 E [CD]2 C2 | %14
 (C4 B,2) z2 |!ff! FFEE FF [GB]2 | [CE]4 (c2 [Dc]2) | [DB]6 A,2 | B,4 G,4 | C4 D2 B,2 | %20
 A,/A,/B,/B,/ C/C/A,/A,/ B,/B,/G,/G,/ A,/A,/D/D/ | G4 (EF G2) | (F^C/B,/ A,/G,/F,/E,/) D,2 z2 | %23
 D4 (D2 C2) | A,4 C2 !>!G2 |!ff! !>![EB]4 !>!A,4 | D/E/D/^C/ DE C2 C2 | B,6 z2 |!mf! =F,4 B,2 z2 | %29
[K:C] z2!ff! G2 B,2 B,2 |[K:C] (C[CE]) D2 B,2 A,2 | G,2 C2 C2 A,2 | (G,2 [F,G,]2) E,2 z2 | %33
!ff! C2 (A,G,) F,2 D2 | (C[CE]) D2 B,2 z2 | C4 (^A,2 =A,2) | (F,2 [F,G,]2) E,2 z2 |!mf! C4 C4 | %38
 (C2 B,A, B,2) z2 |!ff! C4 D4 | E6 z2 | (A,2 B,2) C4 | (C2 B,A, B,2) z2 |!mf! A,4!<(! F,4!<)! | %44
 (E,2 ^F,2 ^G,2) z2 | C4 (_B,2 A,2) | F,2 [F,G,]2 E,2 !>![C,G,]2 | %47
 !>!C2 !>![C,G,]2 B,2 (E/D/E/G/) | C2 D2 B,2 E2 | E2 C2 C2 A,2 | (F,A,) G,2 E,2 !>![C,G,]2 | %51
 C2 [C,G,]2 B,2 (E/D/E/G/) | C2 C2 B,2 E2 | E2 C2 C2 A,2 | (F,A,) G,2 E,2 z2 |!mf! C4 C4 | %56
 (C2 B,A, B,2) z2 |!ff! .C,.D,.E,.C, .F,.A,.^G,.E, | .A, z z2 z2 ^G,2 | E2 D2 C2 C2 | %60
 B,6!f! (F,/E,/F,/C,/) | (F,/G,/A,/B,/) .C.C, (^C,D,/E,/) D,2 | B,E/E/ B,/B,/^G/G/!ff! B2 E2 | %63
 E2 C2 C2 A,2 | (F,A,) G,2!<(! F,2 E,D,!<)! |!<(! E,6 z2!<)! |] %66

